flaticon/grooming/lipstick.svg

<svg xmlns="http://www.w3.org/2000/svg" width="32" height="32" viewBox="0 0 24 24">
    <path d="M10.316406 10.949219L9.472656 10.949219 9.472656.671875C9.472656.292969 9.179688 0 8.800781 0 5.683594 0 3.15625 2.527344 3.15625 5.640625L3.15625 10.949219 2.316406 10.949219 2.316406 14.738281 1.894531 14.738281 1.894531 23.15625C1.894531 23.621094 2.273438 24 2.738281 24L9.894531 24C10.359375 24 10.738281 23.621094 10.738281 23.15625L10.738281 14.738281 10.316406 14.738281zM4 5.640625C4 3.03125 6.0625.925781 8.632812.84375L8.632812 10.949219 4 10.949219zM3.15625 11.789062L9.472656 11.789062 9.472656 14.738281 3.15625 14.738281zM9.894531 23.15625L2.738281 23.15625 2.738281 15.578125 9.894531 15.578125zM22.105469 16.210938C22.105469 15.199219 21.808594 14.191406 21.261719 13.347656L21.261719 8.632812C21.261719 6.191406 19.285156 4.210938 16.84375 4.210938 14.398438 4.210938 12.421875 6.191406 12.421875 8.632812L12.421875 13.347656C11.875 14.191406 11.578125 15.199219 11.578125 16.210938 11.578125 16.25 11.582031 16.292969 11.582031 16.332031 11.582031 16.363281 11.578125 16.390625 11.578125 16.421875 11.578125 16.457031 11.582031 16.488281 11.589844 16.523438 11.644531 17.425781 11.929688 18.316406 12.421875 19.074219L12.421875 23.15625C12.421875 23.621094 12.800781 24 13.261719 24L20.421875 24C20.882812 24 21.261719 23.621094 21.261719 23.15625L21.261719 19.199219C21.308594 19.121094 21.332031 19.039062 21.332031 18.960938 21.835938 18.140625 22.105469 17.175781 22.105469 16.210938zM20.503906 18.695312L20.421875 18.820312 20.421875 18.910156C19.574219 20.023438 18.285156 20.671875 16.882812 20.671875 15.410156 20.671875 14.0625 19.957031 13.222656 18.738281 13.199219 18.699219 13.171875 18.667969 13.144531 18.640625 12.683594 17.96875 12.445312 17.15625 12.421875 16.335938 12.46875 14.984375 13.585938 13.894531 14.949219 13.894531L17.050781 13.894531C18.441406 13.894531 19.578125 15.03125 19.578125 16.421875 19.578125 17.601562 18.652344 18.527344 17.472656 18.527344L16.210938 18.527344C15.285156 18.527344 14.527344 17.769531 14.527344 16.84375 14.527344 16.378906 14.90625 16 15.367188 16 15.621094 16 15.789062 15.832031 15.789062 15.578125 15.789062 15.328125 15.621094 15.15625 15.367188 15.15625 14.441406 15.15625 13.683594 15.914062 13.683594 16.84375 13.683594 18.230469 14.820312 19.367188 16.210938 19.367188L17.472656 19.367188C19.117188 19.367188 20.421875 18.0625 20.421875 16.421875 20.421875 14.570312 18.90625 13.050781 17.050781 13.050781L14.949219 13.050781C14.390625 13.050781 13.863281 13.191406 13.398438 13.433594 14.246094 12.390625 15.492188 11.789062 16.84375 11.789062 18.269531 11.789062 19.574219 12.460938 20.421875 13.609375L20.421875 13.640625 20.503906 13.726562C21.011719 14.441406 21.261719 15.328125 21.261719 16.210938 21.261719 17.09375 21.011719 17.980469 20.503906 18.695312zM16.84375 5.050781C18.820312 5.050781 20.421875 6.652344 20.421875 8.632812L20.421875 12.421875C19.457031 11.507812 18.152344 10.988281 16.800781 10.988281 15.484375 10.988281 14.21875 11.476562 13.261719 12.34375L13.261719 8.632812C13.261719 6.652344 14.863281 5.050781 16.84375 5.050781zM13.261719 23.15625L13.261719 20.082031C14.222656 20.96875 15.507812 21.472656 16.84375 21.472656 18.160156 21.472656 19.425781 20.984375 20.421875 20.117188L20.421875 23.15625zM13.261719 23.15625"/>
    <path d="M 7.789062 1.726562 C 6.105469 2.105469 4.800781 4.125 4.589844 5.769531 C 4.589844 5.980469 4.757812 6.191406 4.96875 6.230469 L 5.011719 6.230469 C 5.222656 6.230469 5.390625 6.0625 5.472656 5.851562 C 5.640625 4.546875 6.738281 2.863281 8 2.570312 C 8.210938 2.527344 8.335938 2.273438 8.292969 2.0625 C 8.253906 1.808594 8 1.683594 7.789062 1.726562 Z M 7.789062 1.726562"/>
</svg>

<svg xmlns="http://www.w3.org/2000/svg" width="32" height="32" viewBox="0 0 24 24">
    <path d="M10.316 10.95h-.843V.671A.662.662 0 0 0 8.8 0a5.644 5.644 0 0 0-5.645 5.64v5.31h-.84v3.788h-.421v8.418c0 .465.378.844.843.844h7.157a.845.845 0 0 0 .843-.844v-8.418h-.422zM4 5.64A4.788 4.788 0 0 1 8.633.845v10.105H4zm-.844 6.15h6.317v2.948H3.156zm6.739 11.366H2.738v-7.578h7.157zm0 0M22.105 16.21a5.3 5.3 0 0 0-.843-2.862V8.633a4.42 4.42 0 1 0-8.84 0v4.715a5.3 5.3 0 0 0-.844 2.863c0 .039.004.082.004.121 0 .031-.004.059-.004.09a.45.45 0 0 0 .012.101c.055.903.34 1.793.832 2.551v4.082c0 .465.379.844.84.844h7.16c.46 0 .84-.379.84-.844V19.2a.465.465 0 0 0 .07-.238c.504-.82.773-1.785.773-2.75zm-1.601 2.485l-.082.125v.09a4.422 4.422 0 0 1-3.54 1.762 4.417 4.417 0 0 1-3.66-1.934.504.504 0 0 0-.077-.097c-.461-.672-.7-1.485-.723-2.305a2.535 2.535 0 0 1 2.527-2.441h2.102a2.534 2.534 0 0 1 2.527 2.527c0 1.18-.926 2.105-2.105 2.105H16.21a1.689 1.689 0 0 1-1.684-1.683c0-.465.38-.844.84-.844.254 0 .422-.168.422-.422 0-.25-.168-.422-.422-.422a1.69 1.69 0 0 0-1.683 1.688 2.533 2.533 0 0 0 2.527 2.523h1.262a2.928 2.928 0 0 0 2.949-2.945 3.382 3.382 0 0 0-3.371-3.371h-2.102a3.35 3.35 0 0 0-1.55.383 4.411 4.411 0 0 1 3.445-1.645 4.42 4.42 0 0 1 3.578 1.82v.032l.082.086c.508.714.758 1.601.758 2.484s-.25 1.77-.758 2.484zm-3.66-13.644a3.578 3.578 0 0 1 3.578 3.582v3.789a5.281 5.281 0 0 0-3.621-1.434 5.278 5.278 0 0 0-3.54 1.356V8.633a3.58 3.58 0 0 1 3.583-3.582zm-3.582 18.105v-3.074a5.295 5.295 0 0 0 3.582 1.39 5.452 5.452 0 0 0 3.578-1.355v3.04zm0 0"/>
    <path d="M7.79 1.727c-1.685.378-2.99 2.398-3.2 4.043 0 .21.168.421.379.46h.043c.21 0 .379-.168.46-.378C5.642 4.547 6.739 2.863 8 2.57c.21-.043.336-.297.293-.507-.04-.254-.293-.38-.504-.336zm0 0"/>
</svg>
